!!!!SEGMENT: pl-wtm--r-1664--001-004_stefani-jozef--okropnosc-czyli-nowa-lafarge-no-3-tempo-di-valca.krn
!!!cenid: 18xx:2059
!!!COM: Stefani, Józef
!!!COM-rismID: pe30024097
!!!CDT: 1800/04/16-1876/03/19
!!!CNT: Polish
!!!OPR: Okropność czyli Nowa Lafarge
!!!OTL: No. 3 - Tempo di valca
!!!OMV: 004
!!!PDT:
!!!AGN: Secular
!!!YEC: Copyright 2022 Narodowy Instytut Fryderyka Chopina (https://polishscores.org)
!!!YEM: License CC-BY-4.0 (https://creativecommons.org/licenses/by/4.0)
!!!SMS-siglum: PL-Wtm
!!!SMS-shelfmark: R 1664
!!!SMS-shelfwork: 001-004 M
!!!SMS-variant:
!!!SMS-altvar:
!!!NIFC-rismSourceID: 1001114328
!!!NIFC-rismChildID: 1001114328
!!!NIFC-islandoraID: pl-wtm:27523
!!!URL-pdf-islandora: https://repozytorium.nifc.pl/islandora/object/pl-wtm%3A27523/datastream/PDF/view
!!!URL-scan: https://polish.musicsources.pl/pl/lokalizacje/galeria/rekopisy/6406 @EN{Scan on Polish Music Sources Website} @PL{Skany w portalu Dziedzictwo Muzyki Polskiej w otwartym dostępie}
!!!IIIF:
!!!ONB-nifc: UWAGA: skany 0017-0019
!!!OMD: Tempo di Valca
!!!AIN: 1 cbass 1 cello 1 clars 1 cor 1 fagot 1 flt 1 oboe 1 tenor 1 timpa 1 tromp 1 tromt 1 viola 2 violn
!!!key: B-
**kern	**dynam	**kern	**dynam	**kern	**text	**kern	**dynam	**kern	**dynam	**kern	**dynam	**kern	**kern	**dynam	**kern	**dynam	**kern	**dynam	**kern	**dynam	**kern	**dynam	**kern	**dynam	**kern	**dynam
*part14	*	*part13	*	*part12	*	*part11	*	*part10	*	*part9	*	*part8	*part7	*	*part6	*	*part5	*	*part4	*	*part3	*	*part2	*	*part1	*
*staff14	*	*staff13	*	*staff12	*	*staff11	*	*staff10	*	*staff9	*	*staff8	*staff7	*	*staff6	*	*staff5	*	*staff4	*	*staff3	*	*staff2	*	*staff1	*
*I"C:Baſsi	*	*I"Violoncelli	*	*I"Szymon	*	*I"Viole	*	*I"Violini	*	*I"Violini	*	*I"C. F. Timpani	*I"Trombone	*	*I"in C Trombe	*	*I"Fagoto	*	*I"in F. Corni	*	*I"in C. Clarinetti	*	*I"Oboe	*	*I"Flauto	*
*mI"Contrabasso	*	*mI"Violoncello	*	*	*	*mI"Viola	*	*mI"Violino II	*	*mI"Violino I	*	*I"Timpani in C F	*	*	*mI"Tromba in C	*	*	*	*mI"Corni in B	*	*mI"Clarinetti in B	*	*	*	*	*
*I'cb	*	*I'vlc	*	*I'T	*	*I'vla	*	*I'vl 2	*	*I'vl 1	*	*I'timp	*I'trb	*	*I'tr in C	*	*I'fag	*	*I'cor in F	*	*I'cl in C	*	*I'ob	*	*I'fl	*
*	*	*	*	*	*	*	*	*	*	*	*	*	*	*	*	*	*	*	*mI'cor in B	*	*mI'cl in B	*	*	*	*	*
*Icbass	*	*Icello	*	*Itenor	*	*Iviola	*	*Ivioln	*	*Ivioln	*	*Itimpa	*Itromt	*	*Itromp	*	*Ifagot	*	*Icor	*	*Iclars	*	*Ioboe	*	*Iflt	*
*ICstr	*	*ICstr	*	*ICvox	*	*ICstr	*	*ICstr	*	*ICstr	*	*ICidio	*ICbras	*	*ICbras	*	*ICww	*	*ICbras	*	*ICww	*	*ICww	*	*ICww	*
*	*	*	*	*IGsolo	*	*	*	*	*	*	*	*	*	*	*	*	*	*	*	*	*	*	*	*	*	*
*clefF4	*	*clefF4	*	*clefG2	*	*clefC3	*	*clefG2	*	*clefG2	*	*clefF4	*clefF4	*	*clefG2	*	*clefF4	*	*clefG2	*	*clefG2	*	*clefG2	*	*clefG2	*
*ITrd0c0	*	*	*	*ITrd8c12	*	*	*	*	*	*	*	*	*	*	*	*	*	*	*ITrd1c2	*	*ITrd1c2	*	*	*	*	*
*k[b-e-]	*	*k[b-e-]	*	*k[b-e-]	*	*k[b-e-]	*	*k[b-e-]	*	*k[b-e-]	*	*k[]	*k[b-e-]	*	*k[b-e-]	*	*k[b-e-]	*	*k[b-e-]	*	*k[b-e-a-d-]	*	*k[b-e-]	*	*k[b-e-]	*
*	*	*	*	*	*	*	*	*	*	*	*	*mk[b-e-]	*	*	*	*	*	*	*	*	*mk[b-e-]	*	*	*	*	*
*B-:	*	*B-:	*	*B-:	*	*B-:	*	*B-:	*	*B-:	*	*B-:	*B-:	*	*B-:	*	*B-:	*	*B-:	*	*B-:	*	*B-:	*	*B-:	*
*M3/4	*	*M3/4	*	*M3/4	*	*M3/4	*	*M3/4	*	*M3/4	*	*M3/4	*M3/4	*	*M3/4	*	*M3/4	*	*M3/4	*	*M3/4	*	*M3/4	*	*M3/4	*
=	=	=	=	=	=	=	=	=	=	=	=	=	=	=	=	=	=	=	=	=	=	=	=	=	=	=
*all\right	*	*all\right	*	*all\right	*	*all\right	*	*all\right	*	*all\right	*	*	*all\right	*	*all\right	*	*all\right	*	*all\right	*	*all\right	*	*all\right	*	*all\right	*
!	!	!	!	!	!	!	!	!	!LO:MO:null:mod=!LO&colon;DY&colon;ed=brack	!	!	!	!	!	!	!	!	!	!	!	!	!LO:MO:null:mod=!LO&colon;DY&colon;ed=brack	!	!LO:MO:null:mod=!LO&colon;DY&colon;ed=brack	!	!
!	!	!	!	!	!	!	!	!	!	!	!	!	!	!	!	!	!	!	!	!	!LO:TX:t=P:problem=w źródle niepotrzebnie zanotowane znaki przykluczowe (zostawiając klarnet w c dźwięki są o sekundę za wysoko)	!	!	!	!	!
!	!	!	!	!	!	!	!	!	!LO:MO:null:mod=f	!	!	!	!	!	!	!	!	!	!	!	!LO:SIC:v:o=(<8b-L 8d-/	!LO:MO:null:mod=f	!	!LO:MO:null:mod=f	!LO:TX:a:Bi:t=No 3	!LO:DY:b:rj
4r	.	4r	.	4r	.	4r	.	(<8B-/L	.	(<8d/L	f	4ryy	4r	.	(<8B-/L	f	4r	.	4r	.	(8b-L 8dn/	.	(>8dd\L	.	(>8dd\L	f
!	!	!	!	!	!	!	!	!LO:TX:a:t=P:problem=w źródle łuk kończy się za kreską taktową	!	!LO:TX:a:t=P:problem=w źródle łuk kończy się za kreską taktową	!	!	!	!	!LO:TX:a:t=P:problem=w źródle łuk kończy się za kreską taktową	!	!	!	!	!	!	!	!	!	!	!
.	.	.	.	.	.	.	.	8c/J)	.	8e-/J)	.	.	.	.	8c/J)	.	.	.	.	.	8ccJ 8e-/)	.	8ee-\J)	.	8ee-\J)	.
=1	=1	=1	=1	=1	=1	=1	=1	=1	=1	=1	=1	=1	=1	=1	=1	=1	=1	=1	=1	=1	=1	=1	=1	=1	=1	=1
*2\right	*	*2\right	*	*	*	*2\right	*	*	*	*	*	*	*	*	*	*	*2\right	*	*2\right	*	*	*	*	*	*	*
*	*	*	*	*	*	*tremolo	*	*	*	*	*	*	*	*	*	*	*tremolo	*	*	*	*	*	*	*	*	*
!	!	!	!	!	!	!	!	!	!	!	!	!	!	!LO:MO:null:mod=!LO&colon;DY&colon;ed=brack	!	!	!	!	!	!LO:MO:null:mod=!LO&colon;DY&colon;ed=brack	!	!	!	!	!	!
!	!	!LO:TX:a:t=P:problem=w źródle unison oznaczony jako //	!	!	!	!	!	!	!	!	!	!	!	!	!	!	!	!	!	!	!	!	!	!	!	!
!LO:TX:t=P:problem=mixed beam	!LO:DY:b:rj	!LO:TX:t=P:problem=mixed beam	!LO:DY:b:rj	!	!	!	!LO:DY:b:rj	!	!	!	!	!	!	!LO:MO:null:mod=f	!LO:SIC:o=(>4.d/	!	!LO:TX:t=P:problem=mixed beam	!LO:DY:b:rj	!	!LO:MO:null:mod=f	!LO:SIC:v:o=4.dd- 4.f/	!	!	!	!	!
8BB-/L	f	8BB-/Lyy	fyy	2.r	.	8B-/L	f	4.d/	.	4.f/	.	2.ryy	4.BB-/	.	4.d	.	8BB-/L	f	4.f 4.F/	.	4.ddn 4.f/	.	4.ff\	.	4.ff\	.
8B-\J	.	8B-\Jyy	.	.	.	8B-/	.	.	.	.	.	.	.	.	.	.	8B-\	.	.	.	.	.	.	.	.	.
!LO:TX:t=P:problem=mixed beam	!	!LO:TX:t=P:problem=mixed beam	!	!	!	!	!	!	!	!	!	!	!	!	!	!	!	!	!	!	!	!	!	!	!	!
8BB-/L	.	8BB-/Lyy	.	.	.	8B-/	.	.	.	.	.	.	.	.	.	.	8BB-/	.	.	.	.	.	.	.	.	.
!	!	!	!	!	!	!	!	!	!	!	!	!	!	!	!LO:SIC:o=8d/L	!	!	!	!	!	!LO:SIC:v:o=(<8dd-L 8f/	!	!	!	!	!
8B-\J	.	8B-\Jyy	.	.	.	8B-/	.	(<8d/L	.	(<8f/L	.	.	8BB-/L	.	(8dL	.	8B-\	.	8fL 8F/	.	(<8ddnL 8f	.	(>8ff\L	.	(>8ff\L	.
!LO:TX:t=P:problem=mixed beam	!	!LO:TX:t=P:problem=mixed beam	!	!	!	!	!	!	!	!	!	!	!	!	!	!	!	!	!	!	!	!	!	!	!	!
8BB-/L	.	8BB-/Lyy	.	.	.	8B-/	.	8e-/	.	8g/	.	.	8BB-/	.	8e-/	.	8BB-/	.	8f 8F/	.	8ee- 8g/	.	8gg\	.	8gg\	.
!	!	!	!	!	!	!	!	!	!	!	!	!	!	!	!	!	!	!	!	!	!LO:SIC:v:o=8ccJ 8a-/)	!	!	!	!	!
8B-\J	.	8B-\Jyy	.	.	.	8B-/J	.	8c/J)	.	8a/J)	.	.	8BB-/J	.	8c/J)	.	8B-\J	.	8fJ 8F/	.	8ccJ 8b-/)	.	8aa\J)	.	8aa\J)	.
*	*	*	*	*	*	*Xtremolo	*	*	*	*	*	*	*	*	*	*	*Xtremolo	*	*	*	*	*	*	*	*	*
=2	=2	=2	=2	=2	=2	=2	=2	=2	=2	=2	=2	=2	=2	=2	=2	=2	=2	=2	=2	=2	=2	=2	=2	=2	=2	=2
!LO:TX:t=P:problem=mixed beam	!	!LO:TX:t=P:problem=mixed beam	!	!	!	!	!	!	!	!	!	!	!	!	!	!	!LO:TX:t=P:problem=mixed beam	!	!	!	!LO:SIC:v:o=4.dd- 4.b-\	!	!LO:SIC:o=4bb-\	!	!	!
8BB-/L	.	8BB-/Lyy	.	2.r	.	4.B-/	.	4.d/	.	(<4b-/	.	2.ryy	4.BB-/	.	4.d/	.	(>8BB-/L	.	4.f 4.F/	.	4.ddn 4.b-\	.	(4bb-	.	(>4bb-\	.
8B-\	.	8B-\yy	.	.	.	.	.	.	.	.	.	.	.	.	.	.	8B-\)	.	.	.	.	.	.	.	.	.
!	!	!	!	!	!	!	!	!	!	!	!	!	!	!	!	!	!	!	!	!	!	!	!LO:SIC:o=8ff\	!	!	!
8BB-/J	.	8BB-/Jyy	.	.	.	.	.	.	.	8f/)	.	.	.	.	.	.	8B-'>\J	.	.	.	.	.	8ff)	.	8ff\)	.
!	!	!	!	!	!	!	!	!	!	!	!	!	!	!	!	!	!LO:TX:t=P:problem=w źródle brakująca pauza	!	!	!	!	!	!	!	!	!
8r	.	8ryy	.	.	.	8r	.	8r	.	8r	.	.	8r	.	8r	.	8ryy	.	8r	.	8r	.	8r	.	8r	.
!	!	!	!	!	!	!	!	!	!	!	!	!	!	!	!	!	!LO:SIC:o=8G\L	!	!	!	!LO:SIC:v:o=(>8dd-L 8d-\	!	!	!	!	!
4r	.	4ryy	.	.	.	4r	.	4r	.	4r	.	.	4r	.	4r	.	(8GL	.	4r	.	(>8eenL 8en\	.	(>8b-\L	.	(>8bb-\L	.
!	!	!	!	!	!	!	!	!	!	!	!	!	!	!	!	!	!LO:SIC:o=8e-\J	!	!	!	!	!	!	!	!	!
.	.	.	.	.	.	.	.	.	.	.	.	.	.	.	.	.	8e-J)	.	.	.	8ggJ 8g\)	.	8cc\J)	.	8ccc\J)	.
=3	=3	=3	=3	=3	=3	=3	=3	=3	=3	=3	=3	=3	=3	=3	=3	=3	=3	=3	=3	=3	=3	=3	=3	=3	=3	=3
!	!	!	!	!	!	!	!	!	!	!	!	!	!	!	!	!	!	!	!	!	!	!	!LO:SIC:o=4dd\	!	!	!
2.r	.	2.ryy	.	2.r	.	2.r	.	2.r	.	2.r	.	2.ryy	2.r	.	2.r	.	4.d\	.	2.r	.	4.ff#X 4.f#X\	.	(4dd	.	(>4ddd\	.
!	!	!	!	!	!	!	!	!	!	!	!	!	!	!	!	!	!	!	!	!	!	!	!LO:SIC:o=8a/	!	!	!
.	.	.	.	.	.	.	.	.	.	.	.	.	.	.	.	.	.	.	.	.	.	.	8a)	.	8aa\)	.
.	.	.	.	.	.	.	.	.	.	.	.	.	.	.	.	.	8r	.	.	.	8r	.	8r	.	8r	.
!	!	!	!	!	!	!	!	!	!	!	!	!	!	!	!	!	!	!	!	!	!LO:SIC:v:o=(>8dd-L 8d-\	!	!	!	!	!
.	.	.	.	.	.	.	.	.	.	.	.	.	.	.	.	.	(>8G\L	.	.	.	(>8eenL 8en\	.	(>8b-\L	.	(>8bb-\L	.
!	!	!	!	!	!	!	!	!	!	!	!	!	!	!	!	!	!	!	!	!	!LO:SIC:o=8ggJ 8g\	!	!	!	!	!
.	.	.	.	.	.	.	.	.	.	.	.	.	.	.	.	.	8e-\J)	.	.	.	8ggJ 8g)	.	8cc\J)	.	8ccc\J)	.
=4	=4	=4	=4	=4	=4	=4	=4	=4	=4	=4	=4	=4	=4	=4	=4	=4	=4	=4	=4	=4	=4	=4	=4	=4	=4	=4
*	*	*	*	*	*	*	*	*	*	*	*	*	*	*	*	*	*	*	*^	*	*	*	*	*	*	*
!	!	!	!	!	!	!	!	!	!	!	!	!	!	!	!	!	!	!	!	!	!	!LO:SIC:o=4.ff#X 4.f#X\)	!	!	!	!	!
4r	.	4ryy	.	2.r	.	4r	.	4r	.	4r	.	2.ryy	4r	.	4r	.	4.d\	.	4r	2ryy	.	4.ff# 4.f#	.	(>4dd\	.	(>4ddd\	.
4r	.	4ryy	.	.	.	4r	.	4r	.	4r	.	.	4r	.	4r	.	.	.	4r	.	.	.	.	8a/)	.	8aa\)	.
.	.	.	.	.	.	.	.	.	.	.	.	.	.	.	.	.	8r	.	.	.	.	8r	.	8r	.	8r	.
!	!	!	!	!	!	!	!LO:MO:null:mod=!LO&colon;DY&colon;ed=brack	!	!LO:MO:null:mod=!LO&colon;DY&colon;ed=brack	!	!	!	!	!	!	!	!	!	!	!	!	!	!	!	!	!	!
!	!	!	!	!	!	!	!	!	!	!	!	!	!	!	!	!	!	!	!	!	!	!	!	!	!	!	!
!	!LO:DY:b:rj	!	!LO:DY:b:rj	!	!	!	!LO:MO:null:mod=f	!	!LO:MO:null:mod=f	!	!LO:DY:b:rj	!	!	!	!	!	!	!	!	!	!	!	!	!	!	!	!
4E-\	f	4E-\yy	fyy	.	.	4g 4c\	.	4gg 4cc\	.	4ccc 4ee-\	f	.	4E-\	.	4g/	.	4E-\	.	4cc/	4cc\	.	4gg 4ee-\	.	4cc\	.	4ccc\	.
!!LO:PB:g=original
=5	=5	=5	=5	=5	=5	=5	=5	=5	=5	=5	=5	=5	=5	=5	=5	=5	=5	=5	=5	=5	=5	=5	=5	=5	=5	=5	=5
*	*	*	*	*	*	*^	*	*	*	*	*	*	*	*	*	*	*	*	*	*	*	*^	*	*	*	*	*
!	!	!LO:TX:a:t=P:problem=w źródle unison kontunuowany i oznaczony jako //	!	!	!	!	!	!	!	!	!	!	!	!	!	!	!	!	!	!LO:SIC:v:o=4ee-/	!	!	!	!LO:SIC:v:o=4dd-\	!	!	!	!	!
4F\	.	4F\yy	.	2.r	.	4f/	4d\	.	4ff 4b-\	.	4bb- 4dd\	.	2.ryy	4F\	.	4b-\	.	4F\	.	4ddn/	4b-\	.	4ff/	4ddn\	.	4b-\	.	4bb-\	.
4r	.	4ryy	.	.	.	4r	2ryyyy	.	4r	.	4r	.	.	4r	.	4r	.	4r	.	4r	2ryyyy	.	4r	2ryyyy	.	4r	.	4r	.
4r	.	4ryy	.	.	.	4r	.	.	4r	.	4r	.	.	4r	.	4r	.	4r	.	4r	.	.	4r	.	.	4r	.	4r	.
*	*	*	*	*	*	*v	*v	*	*	*	*	*	*	*	*	*	*	*	*	*v	*v	*	*	*	*	*	*	*	*
=6	=6	=6	=6	=6	=6	=6	=6	=6	=6	=6	=6	=6	=6	=6	=6	=6	=6	=6	=6	=6	=6	=6	=6	=6	=6	=6	=6
*	*	*	*	*2\right	*	*	*	*	*	*	*	*	*	*	*	*	*	*	*	*	*	*	*	*	*	*	*
4F\	.	4F\yy	.	4r	.	4a 4f 4c\	.	4ee- 4f\	.	4aa 4cc 4f\	.	2.ryy	4F\	.	4a/	.	4FF/	.	4cc 4f/	.	4ee-/	4cc\	.	4a/	.	4aa\	.
4r;>	.	4r;>yy	.	4r;>	.	4r;>	.	4r;>	.	4r;>	.	.	4r;>	.	4r;>	.	4r;>	.	4r;>	.	4r;>	2ryyyy	.	4r;>	.	4r;>	.
!	!	!	!	!	!	!	!	!	!LO:MO:null:mod=!LO&colon;DY&colon;ed=brack	!	!	!	!	!	!	!	!	!	!	!	!	!	!	!	!	!	!
!	!	!	!	!LO:TX:a:Bi:t=Müller.	!	!	!	!	!	!	!	!	!	!	!	!	!	!	!	!	!	!	!	!	!	!	!
!	!	!	!	!	!	!	!	!	!LO:MO:null:mod=p	!	!LO:DY:b:rj	!	!	!	!	!	!	!	!	!	!	!	!	!	!	!	!
4r	.	4ryy	.	8D/	Żo-	4r	.	(<8B-/L	.	(<8d/L	p	.	4r	.	4r	.	4r	.	4r	.	4r	.	.	4r	.	4r	.
.	.	.	.	8E-/	-na	.	.	8c/J)	.	8e-/J)	.	.	.	.	.	.	.	.	.	.	.	.	.	.	.	.	.
*	*	*	*	*	*	*	*	*	*	*	*	*	*	*	*	*	*	*	*	*	*v	*v	*	*	*	*	*
=7	=7	=7	=7	=7	=7	=7	=7	=7	=7	=7	=7	=7	=7	=7	=7	=7	=7	=7	=7	=7	=7	=7	=7	=7	=7	=7
*	*	*	*	*	*	*tremolo	*	*	*	*	*	*	*	*	*	*	*	*	*	*	*	*	*	*	*	*
!	!LO:MO:null:mod=!LO&colon;DY&colon;ed=brack	!	!	!	!	!	!	!	!	!	!	!	!	!	!	!	!	!	!	!	!	!	!	!	!	!
!	!	!	!	!	!	!	!	!	!	!	!	!	!	!	!	!	!	!	!	!	!	!	!	!	!	!
!	!LO:MO:null:mod=p	!LO:TX:t=P:problem=mixed beam	!LO:DY:b	!	!	!	!LO:DY:b:rj	!	!	!	!	!	!	!	!	!	!	!	!	!	!	!	!	!	!	!
4BB-/	.	8BB-/L	p	4.F/	to	8B-/L	p	4.d/	.	4.f/	.	2.ryy	2.r	.	2.r	.	2.r	.	2.r	.	2.r	.	2.r	.	2.r	.
.	.	8B-\J	.	.	.	8B-/	.	.	.	.	.	.	.	.	.	.	.	.	.	.	.	.	.	.	.	.
*	*	*tremolo	*	*	*	*	*	*	*	*	*	*	*	*	*	*	*	*	*	*	*	*	*	*	*	*
4r	.	8B-\L	.	.	.	8B-/	.	.	.	.	.	.	.	.	.	.	.	.	.	.	.	.	.	.	.	.
.	.	8B-\	.	8F/	rzecz	8B-/	.	(<8d/L	.	(<8f/L	.	.	.	.	.	.	.	.	.	.	.	.	.	.	.	.
4r	.	8B-\	.	8G/	o-	8B-/	.	8e-/	.	8g/	.	.	.	.	.	.	.	.	.	.	.	.	.	.	.	.
.	.	8B-\J	.	8A/	-czy-	8B-/J	.	8c/J)	.	8a/J)	.	.	.	.	.	.	.	.	.	.	.	.	.	.	.	.
*	*	*Xtremolo	*	*	*	*Xtremolo	*	*	*	*	*	*	*	*	*	*	*	*	*	*	*	*	*	*	*	*
=8	=8	=8	=8	=8	=8	=8	=8	=8	=8	=8	=8	=8	=8	=8	=8	=8	=8	=8	=8	=8	=8	=8	=8	=8	=8	=8
!	!	!LO:TX:t=P:problem=mixed beam	!	!	!	!	!	!	!	!	!	!	!	!	!	!	!	!	!	!	!	!	!	!	!	!
4.BB-/	.	8BB-/L	.	4B-/	-wi-	8B-/L	.	4.d/	.	(<4b-/	.	2.ryy	2.r	.	2.r	.	2.r	.	2.r	.	2.r	.	2.r	.	2.r	.
.	.	8B-\	.	.	.	8B-/	.	.	.	.	.	.	.	.	.	.	.	.	.	.	.	.	.	.	.	.
.	.	8B-\J	.	8F/	-sta	8B-/J	.	.	.	8f/)	.	.	.	.	.	.	.	.	.	.	.	.	.	.	.	.
8r	.	8r	.	8r	.	8r	.	8r	.	8r	.	.	.	.	.	.	.	.	.	.	.	.	.	.	.	.
!	!	!	!	!	!	!	!	!LO:SIC:o=4d/	!	!	!	!	!	!	!	!	!	!	!	!	!	!	!	!	!	!
4BB-/	.	4BB-/	.	8B-\	jest	4g 4B-\	.	(4d	.	(<4b-/	.	.	.	.	.	.	.	.	.	.	.	.	.	.	.	.
.	.	.	.	8B-\	to	.	.	.	.	.	.	.	.	.	.	.	.	.	.	.	.	.	.	.	.	.
=9	=9	=9	=9	=9	=9	=9	=9	=9	=9	=9	=9	=9	=9	=9	=9	=9	=9	=9	=9	=9	=9	=9	=9	=9	=9	=9
*	*	*	*	*	*	*	*	*	*	*	*	*	*	*	*	*	*	*	*	*	*^	*	*	*	*	*
!	!	!	!	!	!	!	!	!	!	!	!	!	!	!	!	!	!	!	!	!	!	!	!LO:MO:null:mod=!LO&colon;DY&colon;ed=brack	!	!	!	!
!	!	!LO:TX:a:t=P:problem=w źródle unison kontunuowany i oznaczony jako //	!	!	!	!	!	!	!	!	!	!	!	!	!	!	!	!	!	!	!LO:SIC:v:o=(>4.a-/	!	!	!	!	!	!LO:DY:b:rj
!	!	!	!	!	!	!	!	!LO:SIC:o=4f/	!	!	!	!	!	!	!	!	!	!	!	!	!	!	!LO:MO:null:mod=p	!	!	!	!
4C/	.	4C/yy	.	4.A/	dla	4f 4c\	.	4f)	.	4a/)	.	2.ryy	2.r	.	2.r	.	2.r	.	2.r	.	(>4.an/	2.re	.	2.r	.	(>4.aa\	p
4r	.	4ryy	.	.	.	4r	.	4r	.	4r	.	.	.	.	.	.	.	.	.	.	.	.	.	.	.	.	.
.	.	.	.	8c\	mnie	.	.	.	.	.	.	.	.	.	.	.	.	.	.	.	8cc/L	.	.	.	.	8ccc\L	.
!	!	!	!	!	!LO:MO:mod=ko-	!	!	!LO:SIC:v:o=4e-/	!	!	!	!	!	!	!	!	!	!	!	!	!	!	!	!	!	!	!
4C/	.	4C/yy	.	8G/	Ko-	4c\	.	4en/	.	4g/	.	.	.	.	.	.	.	.	.	.	8g/	.	.	.	.	8gg\	.
.	.	.	.	8c\	-rzyść	.	.	.	.	.	.	.	.	.	.	.	.	.	.	.	8cc/J)	.	.	.	.	8ccc\J)	.
!!LO:PB:g=original
*	*	*	*	*	*	*	*	*	*	*	*	*	*	*	*	*	*	*	*	*	*v	*v	*	*	*	*	*
=10	=10	=10	=10	=10	=10	=10	=10	=10	=10	=10	=10	=10	=10	=10	=10	=10	=10	=10	=10	=10	=10	=10	=10	=10	=10	=10
!	!	!	!	!	!	!	!	!	!	!	!	!	!	!	!	!	!	!	!	!	!LO:SIC:v:o=(>4a-/	!	!	!	!	!
4.F\	.	4.F\	.	4c\	czys-	4.A/	.	4.f/	.	4.f/	.	2.ryy	2.r	.	2.r	.	2.r	.	8r	.	(>4an/	.	2.r	.	(>4ccc\	.
.	.	.	.	.	.	.	.	.	.	.	.	.	.	.	.	.	.	.	(>16ffLL 16f'>\	.	.	.	.	.	.	.
.	.	.	.	.	.	.	.	.	.	.	.	.	.	.	.	.	.	.	16ffJ 16f'>\	.	.	.	.	.	.	.
!	!	!	!	!	!LO:MO:mod=-ta.	!	!	!	!	!	!	!	!	!	!	!	!	!	!	!	!	!	!	!	!	!
.	.	.	.	8F/	-ta	.	.	.	.	.	.	.	.	.	.	.	.	.	8ffJ 8f'>\)	.	8f/)	.	.	.	8ff\)	.
8r	.	8r	.	8r	.	8r	.	8r	.	8r	.	.	.	.	.	.	.	.	8r	.	8r	.	.	.	8r	.
!	!	!	!	!	!	!	!	!	!LO:MO:null:mod=!LO&colon;DY&colon;ed=brack	!	!LO:MO:null:mod=!LO&colon;DY&colon;ed=brack	!	!	!	!	!	!	!	!	!	!	!	!	!	!	!
!	!	!	!	!	!	!	!	!	!	!	!	!	!	!	!	!	!	!	!	!	!	!	!	!	!	!
!	!	!	!	!	!	!	!	!	!LO:MO:null:mod=p	!	!LO:MO:null:mod=p	!	!	!	!	!	!	!	!	!	!	!	!	!	!	!
4r	.	4r	.	8D/	Bo	4r	.	(<8B-/L	.	(<8d/L	.	.	.	.	.	.	.	.	4r	.	4r	.	.	.	4r	.
.	.	.	.	8E-/	z nią	.	.	8c/J)	.	8e-/J)	.	.	.	.	.	.	.	.	.	.	.	.	.	.	.	.
=11	=11	=11	=11	=11	=11	=11	=11	=11	=11	=11	=11	=11	=11	=11	=11	=11	=11	=11	=11	=11	=11	=11	=11	=11	=11	=11
*	*	*	*	*	*	*tremolo	*	*	*	*	*	*	*	*	*	*	*	*	*	*	*	*	*	*	*	*
!	!LO:MO:null:mod=!LO&colon;DY&colon;ed=brack	!	!	!	!	!	!	!	!	!	!	!	!	!	!	!	!	!	!	!	!	!	!	!	!	!
!	!	!	!	!	!	!	!	!	!	!	!	!	!	!	!	!	!	!	!	!	!	!	!	!	!	!
!	!LO:MO:null:mod=p	!LO:TX:t=P:problem=mixed beam	!LO:DY:b:rj	!	!	!	!LO:DY:b:rj	!	!	!	!	!	!	!	!	!	!	!	!	!	!	!	!	!	!	!
4BB-/	.	8BB-/L	p	4.F,/	dziś	8B-/L	p	4.d/	.	4.f/	.	2.ryy	2.r	.	2.r	.	2.r	.	2.r	.	2.r	.	2.r	.	2.r	.
.	.	8B-\J	.	.	.	8B-/	.	.	.	.	.	.	.	.	.	.	.	.	.	.	.	.	.	.	.	.
*	*	*tremolo	*	*	*	*	*	*	*	*	*	*	*	*	*	*	*	*	*	*	*	*	*	*	*	*
4r	.	8B-\L	.	.	.	8B-/	.	.	.	.	.	.	.	.	.	.	.	.	.	.	.	.	.	.	.	.
.	.	8B-\	.	8F/	bez	8B-/	.	(<8d/L	.	(<8f/L	.	.	.	.	.	.	.	.	.	.	.	.	.	.	.	.
4r	.	8B-\	.	8G/	am-	8B-/	.	8e-/	.	8g/	.	.	.	.	.	.	.	.	.	.	.	.	.	.	.	.
.	.	8B-\J	.	8A/	-ba-	8B-/J	.	8c/J)	.	8a/J)	.	.	.	.	.	.	.	.	.	.	.	.	.	.	.	.
*	*	*Xtremolo	*	*	*	*Xtremolo	*	*	*	*	*	*	*	*	*	*	*	*	*	*	*	*	*	*	*	*
=12	=12	=12	=12	=12	=12	=12	=12	=12	=12	=12	=12	=12	=12	=12	=12	=12	=12	=12	=12	=12	=12	=12	=12	=12	=12	=12
!	!	!LO:TX:t=P:problem=mixed beam	!	!	!	!	!	!	!	!	!	!	!	!	!	!	!	!	!	!	!	!	!	!	!	!
4.BB-/	.	8BB-/L	.	4B-/	-ra-	4.B-/	.	4.d/	.	(<4b-/	.	2.ryy	2.r	.	2.r	.	2.r	.	2.r	.	2.r	.	2.r	.	2.r	.
.	.	8B-\	.	.	.	.	.	.	.	.	.	.	.	.	.	.	.	.	.	.	.	.	.	.	.	.
.	.	8B-\J	.	8F/	-su	.	.	.	.	8f/)	.	.	.	.	.	.	.	.	.	.	.	.	.	.	.	.
8r	.	8r	.	8r	.	8r	.	8r	.	8r	.	.	.	.	.	.	.	.	.	.	.	.	.	.	.	.
!	!	!	!	!	!LO:MO:mod=już	!LO:TX:t=P:problem=mixed beam	!	!	!	!	!	!	!	!	!	!	!	!	!	!	!	!	!	!	!	!
(<8GG/L	.	(<8GG/L	.	8B-\	Już	(<8G/L	.	(<8d/L	.	(>8b-\L	.	.	.	.	.	.	.	.	.	.	.	.	.	.	.	.
!	!	!	!	!	!	!LO:SIC:o=8e-\J	!	!	!	!	!	!	!	!	!	!	!	!	!	!	!	!	!	!	!	!
8E-/J)	.	8E-/J)	.	8c\	i	8e-J)	.	8g/J)	.	8cc\J)	.	.	.	.	.	.	.	.	.	.	.	.	.	.	.	.
=13	=13	=13	=13	=13	=13	=13	=13	=13	=13	=13	=13	=13	=13	=13	=13	=13	=13	=13	=13	=13	=13	=13	=13	=13	=13	=13
!	!	!	!	!	!LO:MO:mod=cór-	!LO:SIC:o=4.d\)	!	!	!	!	!	!	!	!	!	!	!	!	!	!	!	!	!	!	!	!
4.D\	.	4.D\	.	4d\	cor-	4.d	.	4.f#X/	.	(>4dd\	.	2.ryy	2.r	.	2.r	.	2.r	.	2.r	.	2.r	.	2.r	.	2.r	.
!	!	!	!	!	!LO:MO:mod=-kę	!	!	!	!	!	!	!	!	!	!	!	!	!	!	!	!	!	!	!	!	!
.	.	.	.	8A\	-Kę	.	.	.	.	8a/)	.	.	.	.	.	.	.	.	.	.	.	.	.	.	.	.
8r	.	8r	.	8r	.	8r	.	8r	.	8r	.	.	.	.	.	.	.	.	.	.	.	.	.	.	.	.
(<8GG/L	.	(<8GG/L	.	8B-\	mam	(>8G\L	.	(<8d/L	.	(>8b-\L	.	.	.	.	.	.	.	.	.	.	.	.	.	.	.	.
8E-/J)	.	8E-/J)	.	8c\	za	8e-\J)	.	8g/J)	.	8cc\J)	.	.	.	.	.	.	.	.	.	.	.	.	.	.	.	.
=14	=14	=14	=14	=14	=14	=14	=14	=14	=14	=14	=14	=14	=14	=14	=14	=14	=14	=14	=14	=14	=14	=14	=14	=14	=14	=14
4.D\	.	4.D\	.	4d\	wcza-	4.d\	.	4.f#X/	.	(>4dd\	.	2.ryy	2.r	.	2.r	.	4r	.	2.r	.	4r	.	4r	.	4r	.
!	!	!	!	!	!LO:MO:mod=-su.	!	!	!	!	!	!	!	!	!	!	!	!	!	!	!	!	!	!	!	!	!
.	.	.	.	8A/	-su,	.	.	.	.	8a/)	.	.	.	.	.	.	4r	.	.	.	4r	.	4r	.	4r	.
8r	.	8r	.	8r	.	8r	.	8r	.	8r	.	.	.	.	.	.	.	.	.	.	.	.	.	.	.	.
!	!	!	!	!	!	!	!	!	!	!	!	!	!	!	!	!	!	!	!	!	!LO:SIC:v:(>8eenL 8en\	!	!	!LO:MO:null:mod=<	!	!LO:HP:b
4r	.	4r	.	4r	.	4r	.	4r	.	4r	.	.	.	.	.	.	(>8G\L	<	.	.	(>8dd-L 8d-\	<	(>8b-\L	.	(>8bb-\L	<
!	!	!	!	!	!	!	!	!	!	!	!	!	!	!	!	!	!	!	!	!	!LO:SIC:o=8ggJ 8g\	!LO:MO:null:mod=[[	!LO:TX:a:t=P:problem=w źródle łuk kończy się za kreską taktową	!LO:MO:null:mod=[[	!	!LO:MO:null:mod=[[
.	.	.	.	.	.	.	.	.	.	.	.	.	.	.	.	.	8e-\J)	[[	.	.	8ggJ 8g)	.	8cc\J)	.	8ccc\J)	.
!!LO:PB:g=original
=15	=15	=15	=15	=15	=15	=15	=15	=15	=15	=15	=15	=15	=15	=15	=15	=15	=15	=15	=15	=15	=15	=15	=15	=15	=15	=15
!	!	!LO:TX:a:t=P:problem=w źródle unison kontunuowany i nieoznaczony	!	!	!	!	!	!	!	!	!	!	!	!	!	!	!	!	!	!	!LO:SIC:o=4.ff#X 4.f#X\)	!	!LO:SIC:o=4dd\	!LO:MO:null:mod=>	!	!LO:MO:null:mod=>
2.r	.	2.ryy	.	2.r	.	2.r	.	2.r	.	2.r	.	2.ryy	4.D\	.	4.a/	.	4.d\	>	4.dd 4.d/	>	4.ff# 4.f#	[ >	(4dd	.	(>4ddd\	[ >
!	!	!	!	!	!	!	!	!	!	!	!	!	!	!	!	!	!	!	!	!	!	!	!LO:SIC:o=8a\	!LO:MO:null:mod=]	!	!
.	.	.	.	.	.	.	.	.	.	.	.	.	.	.	.	.	.	]	.	]	.	]	8a)	.	8aa\)	]
.	.	.	.	.	.	.	.	.	.	.	.	.	8r	.	8r	.	8r	.	8r	.	8r	.	8r	.	8r	.
!	!	!	!	!	!	!	!	!	!	!	!	!	!	!	!	!	!	!	!	!	!LO:SIC:v:n=1:o=(>8dd-L 8d-\	!	!	!LO:MO:null:mod=<	!	!
.	.	.	.	.	.	.	.	.	.	.	.	.	4r	.	4r	.	(>8G\L	<	4r	.	(>8eenL 8en\	<	(>8b-\L	.	(>8bb-\L	<
!	!	!	!	!	!	!	!	!	!	!	!	!	!	!	!	!	!	!LO:MO:null:mod=[[	!	!	!	!LO:MO:null:mod=[[	!LO:SIC:o=8cc\J	!LO:MO:null:mod=[[	!LO:SIC:o=8ccc\J	!
.	.	.	.	.	.	.	.	.	.	.	.	.	.	.	.	.	8e-\J)	.	.	.	8ggJ 8g\)	.	8ccJ)	.	8cccJ)	[[
=16	=16	=16	=16	=16	=16	=16	=16	=16	=16	=16	=16	=16	=16	=16	=16	=16	=16	=16	=16	=16	=16	=16	=16	=16	=16	=16
!	!	!	!	!	!	!	!	!	!	!	!	!	!	!	!	!	!	!LO:MO:null:mod=>]	!	!	!	!LO:MO:null:mod=>]	!LO:SIC:o=4.dd\)	!LO:MO:null:mod=>]	!LO:SIC:o=4.ddd\)	!
2.r	.	2.ryy	.	2.r	.	2.r	.	2.r	.	2.r	.	2.ryy	4.D\	.	4.a/	.	4.d\	[ >]	4.dd 4.d/	>]	4.ff#X 4.f#X\	[ >]	4.dd	.	4.ddd	>]
.	.	.	.	.	.	.	.	.	.	.	.	.	8r	.	8r	.	8r	.	8r	.	8r	.	8r	.	8r	.
!	!	!	!	!	!	!	!	!	!	!	!	!	!	!	!	!	!	!	!	!LO:DY:b:rj	!	!	!	!	!	!
.	.	.	.	.	.	.	.	.	.	.	.	.	4r	.	4r	.	4r	.	8.ffL 8.f\	f	4r	.	4r	.	4r	.
.	.	.	.	.	.	.	.	.	.	.	.	.	.	.	.	.	.	.	16ffJk 16f\	.	.	.	.	.	.	.
=17	=17	=17	=17	=17	=17	=17	=17	=17	=17	=17	=17	=17	=17	=17	=17	=17	=17	=17	=17	=17	=17	=17	=17	=17	=17	=17
4r	.	4ryy	.	4r	.	4r	.	4r	.	4r	.	2.ryy	2.r	.	2.r	.	2.r	.	2.ff 2.f\	.	2.r	.	2.r	.	2.r	.
4r	.	4ryy	.	4r	.	4r	.	4r	.	4r	.	.	.	.	.	.	.	.	.	.	.	.	.	.	.	.
!	!	!	!	!	!	!	!	!	!LO:MO:null:mod=!LO&colon;DY&colon;ed=brack	!	!	!	!	!	!	!	!	!	!	!	!	!	!	!	!	!
!LO:TX:a:t=P:problem=diminuendolike accent	!LO:DY:b:rj	!LO:TX:a:t=P:problem=diminuendolike accent	!LO:DY:b:rj	!	!	!LO:TX:a:t=P:problem=diminuendolike accent	!LO:DY:b:rj	!	!	!	!LO:DY:b:rj	!	!	!	!	!	!	!	!	!	!	!	!	!	!	!
!	!	!	!	!	!LO:MO:mod=Jak	!	!	!LO:SIC:o=8.A/L	!LO:MO:null:mod=p	!	!	!	!	!	!	!	!	!	!	!	!	!	!	!	!	!
8.F^<\L	p	8.F^<\Lyy	pyy	8.F/	JaK	8.f^<\L	p	8.A^L	.	8.f^</L	p	.	.	.	.	.	.	.	.	.	.	.	.	.	.	.
16F\Jk	.	16F\Jkyy	.	16F/	nie	16f\Jk	.	16A/Jk	.	16f/Jk	.	.	.	.	.	.	.	.	.	.	.	.	.	.	.	.
=18	=18	=18	=18	=18	=18	=18	=18	=18	=18	=18	=18	=18	=18	=18	=18	=18	=18	=18	=18	=18	=18	=18	=18	=18	=18	=18
8.E-X\L	.	8.E-X\Lyy	.	8.G-X/	zna-	8.e-X\L	.	8.B-X/L	.	8.g-X/L	.	2.ryy	2.r	.	2.r	.	2.r	.	2.r	.	2.r	.	2.r	.	2.r	.
16E-\Jk	.	16E-\Jkyy	.	16G-/	-jąc	16e-\Jk	.	16B-/Jk	.	16g-/Jk	.	.	.	.	.	.	.	.	.	.	.	.	.	.	.	.
2AA-X/	.	2AA-X/yy	.	4E-X/	się	2A-X/	.	2c/	.	4f/	.	.	.	.	.	.	.	.	.	.	.	.	.	.	.	.
.	.	.	.	4A-X/	z kło-	.	.	.	.	4a-X/	.	.	.	.	.	.	.	.	.	.	.	.	.	.	.	.
=19	=19	=19	=19	=19	=19	=19	=19	=19	=19	=19	=19	=19	=19	=19	=19	=19	=19	=19	=19	=19	=19	=19	=19	=19	=19	=19
4.D-X\	.	4.D-X\yy	.	4G-X/	-po-	4.A-X/	.	4.d-X/	.	(<4g-X/	.	2.ryy	2.r	.	2.r	.	2.r	.	2.r	.	2.r	.	2.r	.	4r	.
.	.	.	.	8F/	-tem	.	.	.	.	8f/)	.	.	.	.	.	.	.	.	.	.	.	.	.	.	4r	.
8r	.	8ryy	.	8r	.	8r	.	8r	.	8r	.	.	.	.	.	.	.	.	.	.	.	.	.	.	.	.
!	!	!	!	!	!LO:MO:mod=oj-	!	!	!	!	!	!	!	!	!	!	!	!	!	!	!	!	!	!	!	!	!
8.D-\L	.	8.D-\Lyy	.	8.F/	Oj-	8.A-/L	.	8.d-/L	.	8.f/L	.	.	.	.	.	.	.	.	.	.	.	.	.	.	8.ff\L	.
16D-\Jk	.	16D-\Jkyy	.	16F/	-cem	16A-/Jk	.	16d-/Jk	.	16f/Jk	.	.	.	.	.	.	.	.	.	.	.	.	.	.	16ff\Jk	.
!!LO:PB:g=original
=20	=20	=20	=20	=20	=20	=20	=20	=20	=20	=20	=20	=20	=20	=20	=20	=20	=20	=20	=20	=20	=20	=20	=20	=20	=20	=20
*	*	*	*	*	*	*	*	*	*	*	*	*	*	*	*	*	*	*	*^	*	*^	*	*	*	*	*
!	!	!	!	!	!	!	!	!LO:SIC:v:o=4.e-X/	!	!	!	!	!	!	!	!	!	!	!	!	!	!	!	!	!	!	!	!
4.C/	.	4.C/yy	.	4A/	jes-	(<4F/	.	4.f/	.	(<4a/	.	2.ryy	2.r	.	2.r	.	4r	.	4r	2.reyyyy	.	4r	2ryyyy	.	4r	.	(>4aa\	.
.	.	.	.	8F/	-tem,	8A/)	.	.	.	8f/)	.	.	.	.	.	.	4r	.	4r	.	.	4r	.	.	4r	.	8ff\)	.
8r	.	8ryy	.	8r	.	8r	.	8r	.	8r	.	.	.	.	.	.	.	.	.	.	.	.	.	.	.	.	8r	.
!LO:TX:a:t=P:problem=diminuendolike accent	!	!LO:TX:a:t=P:problem=diminuendolike accent	!	!	!	!LO:SIC:o=8.B-/L	!	!LO:SIC:o=8.d-X/L	!	!LO:SIC:o=8.b-X/L	!	!	!	!	!	!	!	!LO:MO:null:mod=.	!	!	!	!	!	!	!	!	!	!
8.BB-^<\L	.	8.BB-^<\Lyy	.	8.B-/	a	8.B-^L	.	8.d-^L	.	8.b-^L	.	.	.	.	.	.	8.BB-\L	>	8.b-/L	.	.	8.b-/L	8.d-\L	.	(>8.bb-\L	.	(>8.bb-\L	.
!	!	!	!	!	!	!	!	!	!	!	!	!	!	!	!	!	!	!LO:MO:null:mod=.	!	!	!	!	!	!	!LO:SIC:v:o=16ee-\Jk	!	!	!
16G-X\Jk	.	16G-X\Jkyy	.	16E/	do	16B-/Jk	.	16c/Jk	.	16en/Jk	.	.	.	.	.	.	16G-X\Jk	]	16b-/Jk	.	.	16eX/Jk	16c\Jk	.	16een\Jk	.	16een\Jk	.
=21	=21	=21	=21	=21	=21	=21	=21	=21	=21	=21	=21	=21	=21	=21	=21	=21	=21	=21	=21	=21	=21	=21	=21	=21	=21	=21	=21	=21
4.F\	.	4.F\yy	.	4F/	ce-	4.A/	.	4.c/	.	4.f/	.	2.ryy	2.r	.	2.r	.	4.F\	.	4.a/	2.re	.	4.f/	4.c\	.	4.ff\)	.	4.ff\)	.
!	!	!	!	!	!LO:MO:mod=-lu	!	!	!	!	!	!	!	!	!	!	!	!	!	!	!	!	!	!	!	!	!	!	!
.	.	.	.	8F/	-lu,	.	.	.	.	.	.	.	.	.	.	.	.	.	.	.	.	.	.	.	.	.	.	.
8r	.	8ryy	.	8r	.	8r	.	8r	.	8r	.	.	.	.	.	.	8r	.	8r	.	.	8r	4.ryy	.	8r	.	8r	.
!	!	!	!	!	!LO:MO:mod=do-	!	!	!	!	!	!	!	!	!	!	!	!	!	!	!	!	!	!	!	!	!	!	!
4F\	.	4F\yy	.	4F/	Do-	4A/	.	4r	.	4f/	.	.	.	.	.	.	4r	.	4r	.	.	4r	.	.	4r	.	4r	.
*	*	*	*	*	*	*	*	*	*	*	*	*	*	*	*	*	*	*	*v	*v	*	*	*	*	*	*	*	*
*	*	*	*	*	*	*	*	*	*	*	*	*	*	*	*	*	*	*	*	*	*v	*v	*	*	*	*	*
=22	=22	=22	=22	=22	=22	=22	=22	=22	=22	=22	=22	=22	=22	=22	=22	=22	=22	=22	=22	=22	=22	=22	=22	=22	=22	=22
4.E-X\	.	4.E-X\yy	.	4G/	-szed-	4.B-/	.	4.e-X/	.	4.g/	.	2.ryy	2.r	.	2.r	.	2.r	.	2.r	.	2.r	.	2.r	.	2.r	.
.	.	.	.	8G/	-łem	.	.	.	.	.	.	.	.	.	.	.	.	.	.	.	.	.	.	.	.	.
!LO:TX:t=P:problem=mixed beam	!	!LO:TX:t=P:problem=mixed beam	!	!	!	!	!	!	!	!	!	!	!	!	!	!	!	!	!	!	!	!	!	!	!	!
8E-\L	.	8E-\Lyy	.	8G/	nie-	8B-/L	.	8e-/L	.	8g/L	.	.	.	.	.	.	.	.	.	.	.	.	.	.	.	.
8F\	.	8F\yy	.	8F/	-wie-	8B-/	.	8d/	.	8f/	.	.	.	.	.	.	.	.	.	.	.	.	.	.	.	.
8FF/J	.	8FF/Jyy	.	8A/	-dząc	8cJ 8F/	.	8e-/J	.	8a/J	.	.	.	.	.	.	.	.	.	.	.	.	.	.	.	.
=23	=23	=23	=23	=23	=23	=23	=23	=23	=23	=23	=23	=23	=23	=23	=23	=23	=23	=23	=23	=23	=23	=23	=23	=23	=23	=23
*	*	*	*	*	*	*	*	*	*	*	*	*	*	*	*	*	*	*	*^	*	*	*	*	*	*	*
4.BB-/	.	4.BB-/yy	.	4c\	o	4.B- 4.F/	.	4.d/	.	(>4cc\	.	2.ryy	2.r	.	2.r	.	4r	.	4r	2ryyyy	.	2.r	.	4r	.	4r	.
!	!	!	!	!LO:TX:a:Bi:t=/&colon; Edward &colon;/	!	!	!	!	!	!	!	!	!	!	!	!	!	!	!	!	!	!	!	!	!	!	!
.	.	.	.	8B-\	tem,	.	.	.	.	8b-\)	.	.	.	.	.	.	4r	.	4r	.	.	.	.	4r	.	4r	.
8r	.	8ryy	.	8r	.	8r	.	8r	.	8r	.	.	.	.	.	.	.	.	.	.	.	.	.	.	.	.	.
!	!LO:MO:null:mod=!LO&colon;DY&colon;ed=brack	!	!LO:MO:null:mod=!LO&colon;DY&colon;ed=brack	!	!	!	!	!	!LO:MO:null:mod=!LO&colon;DY&colon;ed=brack	!	!LO:MO:null:mod=!LO&colon;DY&colon;ed=brack	!	!	!	!	!	!	!LO:MO:null:mod=!LO&colon;DY&colon;ed=brack	!	!	!	!	!	!	!LO:MO:null:mod=!LO&colon;DY&colon;ed=brack	!	!
!	!	!	!	!	!	!	!	!	!	!	!	!	!	!	!	!	!	!	!	!	!	!	!	!	!	!	!
!	!LO:MO:null:mod=p	!	!LO:MO:null:mod=p	!	!LO:MO:mod=ta-	!	!	!	!LO:MO:null:mod=p	!	!LO:MO:null:mod=p	!	!	!	!	!	!	!LO:MO:null:mod=p	!	!	!LO:DY:b:rj	!	!	!	!LO:MO:null:mod=p	!	!LO:DY:b:rj
4E-\	.	4E-\yy	.	8G/	Ta-	(<8B-/L	.	(<8e-/L	.	8g/L	.	.	.	.	.	.	4E-\	.	4ee-/	4cc\	p	.	.	(<8g/L	.	(>8gg\L	p
!	!	!	!	!	!LO:MO:mod=-kich	!	!	!	!	!	!	!	!	!	!	!	!	!	!	!	!	!	!	!	!	!	!
.	.	.	.	8c\	-Kich	8G/J)	.	8g/J)	.	8cc/J	.	.	.	.	.	.	.	.	.	.	.	.	.	8cc/J)	.	8ccc\J)	.
=24	=24	=24	=24	=24	=24	=24	=24	=24	=24	=24	=24	=24	=24	=24	=24	=24	=24	=24	=24	=24	=24	=24	=24	=24	=24	=24	=24
!	!	!	!	!	!LO:MO:mod=oj-	!	!	!	!	!	!	!	!	!	!	!	!	!	!	!	!	!	!	!	!	!	!
4.F\	.	4.F\yy	.	4d\	Oj-	4.B-/	.	(<4f/	.	(>4dd\	.	2.ryy	2.r	.	2.r	.	4.F\	.	4.dd/	4.b-\	.	2.r	.	(>4dd\	.	(>4ddd\	.
.	.	.	.	8B-,<\	-ców	.	.	8d/)	.	8b-\)	.	.	.	.	.	.	.	.	.	.	.	.	.	8b-\)	.	8bb-\)	.
8r	.	8ryy	.	8r	.	8r	.	8r	.	8r	.	.	.	.	.	.	8r	.	8r	4.ryyyy	.	.	.	8r	.	8r	.
!LO:TX:t=P:problem=mixed beam	!	!LO:TX:t=P:problem=mixed beam	!	!	!	!	!	!	!	!	!	!	!	!	!	!	!	!	!	!	!	!	!	!LO:TX:a:t=P:problem=w źródle łuk kończy się za kreską taktową	!	!	!
8F\L	.	8F\Lyy	.	8G/	ma-	4c/	.	4e-/	.	(<8g/L	.	.	.	.	.	.	4r	.	4r	.	.	.	.	(<8g/L	.	(>8gg\L	.
8FF/J	.	8FF/Jyy	.	8A/	-my	.	.	.	.	8a/J)	.	.	.	.	.	.	.	.	.	.	.	.	.	8a/J)	.	8aa\J)	.
!!LO:PB:g=original
*	*	*	*	*	*	*	*	*	*	*	*	*	*	*	*	*	*	*	*v	*v	*	*	*	*	*	*	*
=25	=25	=25	=25	=25	=25	=25	=25	=25	=25	=25	=25	=25	=25	=25	=25	=25	=25	=25	=25	=25	=25	=25	=25	=25	=25	=25
*	*	*	*	*	*	*	*	*	*	*	*	*	*	*	*	*	*	*	*	*	*^	*	*	*	*	*
4.BB-/	.	4.BB-/yy	.	(>4c\	wie-	4.B-/	.	(<4e-/	.	(>4cc\	.	2.ryy	4r	.	4r	.	4r	.	4.f 4.B-/	.	4r	2ryyyy	.	4r	.	(>4ccc\	.
.	.	.	.	8B-\)	-lu.	.	.	8d/)	.	8b-\)	.	.	4r	.	4r	.	4r	.	.	.	4r	.	.	4r	.	8bb-\)	.
8r	.	8ryy	.	8r	.	8r	.	8r	.	8r	.	.	.	.	.	.	.	.	8r	.	.	.	.	.	.	8r	.
!	!	!	!	!	!	!	!	!	!	!	!	!	!	!	!	!LO:MO:null:mod=!LO&colon;DY&colon;ed=brack	!	!	!	!	!	!	!LO:MO:null:mod=!LO&colon;DY&colon;ed=brack	!	!LO:MO:null:mod=!LO&colon;DY&colon;ed=brack	!	!
!	!	!	!	!	!	!	!	!	!	!	!	!	!	!	!	!	!	!	!	!	!	!	!	!	!	!	!
!	!	!	!	!	!	!	!	!	!	!	!	!	!LO:SIC:o=4En\	!LO:DY:b	!LO:SIC:o=4g/	!LO:MO:null:mod=sf	!LO:SIC:o=(>4en\	!LO:DY:b	!	!	!LO:SIC:v:o=(>4dd-X^</	!LO:SIC:o=4b-\	!LO:MO:null:mod=sf	!LO:SIC:o=(>4gg\	!LO:MO:null:mod=sf	!	!LO:DY:b:rj
4r	.	4ryy	.	4r	.	4r	.	4r	.	4r	.	.	(4En^	sf	(4g^	.	(4en^	sf	4r	.	(>4een^</	(4b-^	.	(4gg^	.	(>4gg^<\	sf
=26	=26	=26	=26	=26	=26	=26	=26	=26	=26	=26	=26	=26	=26	=26	=26	=26	=26	=26	=26	=26	=26	=26	=26	=26	=26	=26	=26
!	!	!	!	!	!	!	!	!	!	!	!	!	!LO:SIC:o=4F\	!	!LO:SIC:o=4f/	!	!	!	!	!	!LO:SIC:o=4ddn 4b-\)	!	!	!	!	!	!
4r	.	4ryy	.	2.r	.	4r	.	4r	.	4r	.	2.ryy	4F)	.	4f)	.	4f\)	.	4r	.	4ddn) 4b-)	4ryyyy	.	8ff\)	.	4ff\)	.
.	.	.	.	.	.	.	.	.	.	.	.	.	.	.	.	.	.	.	.	.	.	.	.	8r	.	.	.
4r	.	4ryy	.	.	.	4r	.	4r	.	4r	.	.	4r	.	4r	.	4r	.	4r	.	4r	4ryyyy	.	4r	.	4r	.
!	!	!	!	!	!	!	!LO:MO:null:mod=!LO&colon;DY&colon;ed=brack	!	!LO:MO:null:mod=!LO&colon;DY&colon;ed=brack	!	!	!	!	!LO:MO:null:mod=!LO&colon;DY&colon;ed=brack	!	!	!	!LO:MO:null:mod=!LO&colon;DY&colon;ed=brack	!	!	!	!	!	!	!L	!	!
!	!	!	!	!	!	!	!	!	!	!	!	!	!	!	!	!	!	!	!	!	!	!	!	!	!	!	!
!	!LO:DY:b:rj	!	!LO:DY:b:rj	!	!	!	!LO:MO:null:mod=f	!	!LO:MO:null:mod=f	!	!LO:DY:b:rj	!	!	!LO:MO:null:mod=f	!	!LO:DY:b:rj	!	!LO:MO:null:mod=f	!	!LO:DY:b:rj	!	!	!LO:DY:b:rj	!	!LO:MO:null:mod=f	!	!LO:DY:b:rj
4F\	f	4F\yy	fyy	.	.	4f 4A\	.	4ee- 4f/	.	4aa 4cc\	f	.	4F\	.	4a/	f	4F\	.	4cc 4f/	f	4ee-/	4cc\	f	4aa\	.	4aa\	f
=27	=27	=27	=27	=27	=27	=27	=27	=27	=27	=27	=27	=27	=27	=27	=27	=27	=27	=27	=27	=27	=27	=27	=27	=27	=27	=27	=27
!	!	!	!	!	!	!	!	!	!	!	!	!	!	!	!	!	!	!	!	!	!LO:SIC:v:o=4dd-/	!	!	!	!	!	!
4BB-/	.	4BB-/yy	.	2.r	.	4f 4B-\	.	4dd 4f/	.	4bb- 4dd\	.	2.ryy	4BB-/	.	4b-/	.	4B-\	.	4b- 4d/	.	4ddn/	4b-\	.	4bb-\	.	4bb-\	.
4r	.	4ryy	.	.	.	4r	.	4r	.	4r	.	.	4r	.	4r	.	4r	.	4r	.	4r	2ryyyy	.	4r	.	4r	.
4r	.	4ryy	.	.	.	4r	.	4r	.	4r	.	.	4r	.	4r	.	4r	.	4r	.	4r	.	.	4r	.	4r	.
*	*	*	*	*	*	*	*	*	*	*	*	*	*	*	*	*	*	*	*	*	*v	*v	*	*	*	*	*
==	==	==	==	==	==	==	==	==	==	==	==	==	==	==	==	==	==	==	==	==	==	==	==	==	==	==
*-	*-	*-	*-	*-	*-	*-	*-	*-	*-	*-	*-	*-	*-	*-	*-	*-	*-	*-	*-	*-	*-	*-	*-	*-	*-	*-
!!!system-decoration: ({s1,s2}s3,s4,s5,s6,s7,s8{s9,s10}s11,s12{s13,s14})
!!!RDF**kern: | = vertical stroke
!!LO:MO:ori
!!!RDF**kern: > = above
!!!RDF**kern: < = below
!!LO:MO:end
!!!filter-modern: sic -sq | autostem -r | tie -s | shed -k -e "s/[<>]//g" | shed -e "s/LO:DY:(a|b|rj)/LO:dy:$1/L" | shed -e "s/:t=P:/:T=P:/L" | shed -e "s/-//B" | shed -e "s/yy//" | shed -e "s/:t=P:/:T=P:/L" | shed -e "s/^(\d+[\/\\]right)/$1yy/I; s/^(\d+[\/\\]left)/$1yy/I" | modori -m
!!!ENC: Tomasz Grochalski
!!!END: 2021-04-30
!!!EED: Wojciech Jakubiak-Danek
!!!EEV: 2021-05-09
!!!ENC-modern: Marta Lawrence
!!!END-modern: 2022-07-01
